images/kudos.svg

<svg height="250" viewBox="0 0 250 250" width="250" xmlns="http://www.w3.org/2000/svg"><path d="m4.619859 2.610031-4.61999959 7.920031 4.61999959 7.920031h9.240329l4.619671-7.920031-4.619671-7.920031zm-4.457578 7.920031 4.538953-7.781094h9.077907l4.538953 7.781094-4.538953 7.781094h-9.077907zm0 0" fill="none" stroke="#0ecf7c" stroke-width="2" transform="matrix(0 11.904762 -13.157895 0 260.131572 15.357142)"/></svg>

<?xml version="1.0" encoding="UTF-8"?>
<svg xmlns="http://www.w3.org/2000/svg" xmlns:xlink="http://www.w3.org/1999/xlink" width="250px" height="250px" viewBox="0 0 250 250" version="1.1">
<g id="surface1">
<path style="fill:none;stroke-width:2;stroke-linecap:butt;stroke-linejoin:miter;stroke:rgb(5.490196%,81.176472%,48.627451%);stroke-opacity:1;stroke-miterlimit:4;" d="M 4.619859 2.610031 L -0.000140587 10.530062 L 4.619859 18.450093 L 13.860188 18.450093 L 18.479859 10.530062 L 13.860188 2.610031 Z M 0.162281 10.530062 L 4.701234 2.748968 L 13.779141 2.748968 L 18.318094 10.530062 L 13.779141 18.311156 L 4.701234 18.311156 Z M 0.162281 10.530062 " transform="matrix(0.000000000000000806,11.904762,-13.157895,0.000000000000000729,260.131572,15.357142)"/>
</g>
</svg>
